X:1
T:[ID 1-30]
T:[ID 1-30]
T:Bezeichnung standardisiert: De Marsch van de Graaf van Regteren; Marsch In anderer Quelle: De Marsch van de Graaf van Regteren - Hs. Volksmelodie\"en 1755-1773 (Anm. S. Wascher);
T:Urheber unbekannt Erstbeleg: 1755-1767 (Datum in der schriftlichen Quelle) Datum in der hier transkribierten schriftlichen Quelle: vermutlich vor 1767
C:Urheber unbekannt
C:Erstbeleg: 1755-1767 (Datum in der schriftlichen Quelle)
C:Datum in der hier transkribierten schriftlichen Quelle: vermutlich vor 1767
L:1/8
M:4/4
K:D
V:1 treble 
V:1
 A2 | d2 dd df eg | fg a2 a2 b2 | aagf ggfe | fdAF D2 f2 | ecA^G A2 e2 | dcBA B2 d2 | cedc B2 A2 | %8
 A2 cA dB ec | A2 cAdBec | A6 :: A2 | d2 dd dABc | BAGF G2 B2 | e2 ee eBcd | cBA^G A2 a2 | %16
 b2 (3bag a2 (3agf | g2 (3gfe f2 A2 | Bcde c4 |"^O)" d2 dfegfa |"^O)" d2 dfegfa | d4 :| %22

